svg/white/gxlt.svg

<svg height="32" viewBox="0 0 32 32" width="32" xmlns="http://www.w3.org/2000/svg"><path d="m16 32c-8.836556 0-16-7.163444-16-16s7.163444-16 16-16 16 7.163444 16 16-7.163444 16-16 16zm-3.6716883-27.40155844c-.6763636.21194805-1.3246753.50181818-1.9511688.82597402-.48000004.26493507-.95376628.54545455-1.3932468.87584416-2.02597402 1.4587013-3.56883116 3.56883117-4.35428571 5.93454546-.26181818.8135065-.45506494 1.6550649-.54233766 2.505974-.04675325.5766234-.09038961 1.1563637-.04987013 1.732987.03116883 1.2031169.28051948 2.3906494.67012987 3.5251948.4238961 1.1781819 1.02545454 2.294026 1.78909091 3.2851948 1.46805194 1.9168832 3.52831172 3.3755845 5.82857142 4.1142858.8727273.2711688 1.7703896.4706493 2.6836364.532987.1994805.0342857.4083117.0124675.6109091.0405195 1.2187013.0342857 2.4436363-.109091 3.6187013-.4457143.7012987-.1838961 1.3807792-.455065 2.0322078-.772987 2.318961-1.1283117 4.2420779-3.0358442 5.410909-5.3361039.3085715-.6264935.5859741-1.2716884.7792208-1.9418182.24-.8103896.4145455-1.6425974.4737663-2.4841559.0342857-.2025974.0124675-.4083117.0405194-.6109091.0062338-.2555844.0093507-.5080519 0-.7605194-.0280519-.2025974-.0062337-.4083117-.0405194-.6109091-.0654546-.935065-.2742858-1.8576624-.5548052-2.7490909-.2119481-.6483117-.4924676-1.2748052-.8041559-1.8825974-.2680519-.48000004-.5454545-.95376628-.8758441-1.3932468-1.415065-1.97298701-3.4535065-3.4877922-5.7444156-4.29506493-1.415065-.48311688-2.9205195-.72623377-4.4166234-.65766234-1.0909091.03428572-2.1724675.24-3.2103896.56727273zm2.3096104 4.32935065c.451948-.00311689.907013 0 1.358961 0-.0031169 1.42129869-.0031169 2.84571429 0 4.26701299-.4301299-.4519481-.8633766-.9007792-1.2935065-1.3527273-.024935-.0342857-.0716883-.0623376-.0654545-.1122078 0-.9350649 0-1.86701296 0-2.80207789zm-5.90961041 1.44935069c1.19688312 0 2.39688311 0 3.59376621.0031168 1.2249351 1.2779221 2.4561039 2.5558442 3.6779221 3.84 1.2249351-1.2810389 2.452987-2.558961 3.6779221-3.84 1.1968831-.0062337 2.3937662-.0031168 3.5937662-.0031168-.1090909.0748052-.187013.1807792-.2805195.2711688-1.5677922 1.5802597-3.1293506 3.1667532-4.6971428 4.747013-.2057143.1963636-.3927273.4051948-.5922078.6046753.8228571.8509091 1.6675324 1.6831169 2.4966234 2.5277922.8540259.8696104 1.7174026 1.7361039 2.5745454 2.6025974.1714286.158961.3148052.3428572.4987013.4893507-1.1968831-.0031169-2.3937662.0031168-3.5906493-.0062338-1.2249351-1.281039-2.4529871-2.5620779-3.6779221-3.8431169-1.2218182 1.2841559-2.452987 2.5620779-3.6779221 3.8431169-1.2.0093506-2.39999999.0062338-3.59688311.0062338.0187013-.0124676.04987013-.0374026.06545454-.0498702.81038961-.8197402 1.62389607-1.6394805 2.43740257-2.4592207 1.0161039-1.0441559 2.054026-2.0696104 3.0732468-3.1137663-.8415585-.854026-1.6893507-1.704935-2.534026-2.558961-.9225974-.9412987-1.85142856-1.8732468-2.77714285-2.8083117-.08727272-.0841559-.16207792-.1838961-.26493506-.2524675zm7.27792211 8.4155844c.1994805.2306493.4207792.4363636.6264935.6607792.2275324.2493506.4706493.4831169.7012987.7324675.0218182.0187013.0342857.0467533.0311688.081039v2.8051948c-.451948 0-.907013-.0031169-1.3620779 0 .0062337-1.4275325.0031169-2.8519481.0031169-4.2794805z" fill="#fff"/></svg>

<?xml version="1.0" encoding="UTF-8"?>
<svg width="32px" height="32px" viewBox="0 0 32 32" version="1.1" xmlns="http://www.w3.org/2000/svg" xmlns:xlink="http://www.w3.org/1999/xlink">
    <!-- Generator: Sketch 50 (54983) - http://www.bohemiancoding.com/sketch -->
    <title>white/gxlt</title>
    <desc>Created with Sketch.</desc>
    <defs></defs>
    <g id="white/gxlt" stroke="none" stroke-width="1" fill="none" fill-rule="evenodd">
        <path d="M16,32 C7.163444,32 0,24.836556 0,16 C0,7.163444 7.163444,0 16,0 C24.836556,0 32,7.163444 32,16 C32,24.836556 24.836556,32 16,32 Z M12.3283117,4.59844156 C11.6519481,4.81038961 11.0036364,5.10025974 10.3771429,5.42441558 C9.89714286,5.68935065 9.42337662,5.96987013 8.9838961,6.30025974 C6.95792208,7.75896104 5.41506494,9.86909091 4.62961039,12.2348052 C4.36779221,13.0483117 4.17454545,13.8898701 4.08727273,14.7407792 C4.04051948,15.3174026 3.99688312,15.8971429 4.0374026,16.4737662 C4.06857143,17.6768831 4.31792208,18.8644156 4.70753247,19.998961 C5.13142857,21.1771429 5.73298701,22.292987 6.49662338,23.2841558 C7.96467532,25.201039 10.0249351,26.6597403 12.3251948,27.3984416 C13.1979221,27.6696104 14.0955844,27.8690909 15.0088312,27.9314286 C15.2083117,27.9657143 15.4171429,27.9438961 15.6197403,27.9719481 C16.8384416,28.0062338 18.0633766,27.8628571 19.2384416,27.5262338 C19.9397403,27.3423377 20.6192208,27.0711688 21.2706494,26.7532468 C23.5896104,25.6249351 25.5127273,23.7174026 26.6815584,21.4171429 C26.9901299,20.7906494 27.2675325,20.1454545 27.4607792,19.4753247 C27.7007792,18.6649351 27.8753247,17.8327273 27.9345455,16.9911688 C27.9688312,16.7885714 27.947013,16.5828571 27.9750649,16.3802597 C27.9812987,16.1246753 27.9844156,15.8722078 27.9750649,15.6197403 C27.947013,15.4171429 27.9688312,15.2114286 27.9345455,15.0088312 C27.8690909,14.0737662 27.6602597,13.1511688 27.3797403,12.2597403 C27.1677922,11.6114286 26.8872727,10.9849351 26.5755844,10.3771429 C26.3075325,9.89714286 26.0301299,9.42337662 25.6997403,8.9838961 C24.2846753,7.01090909 22.2462338,5.4961039 19.9553247,4.68883117 C18.5402597,4.20571429 17.0348052,3.9625974 15.5387013,4.03116883 C14.4477922,4.06545455 13.3662338,4.27116883 12.3283117,4.59844156 Z M14.6379221,8.92779221 C15.0898701,8.92467532 15.5449351,8.92779221 15.9968831,8.92779221 C15.9937662,10.3490909 15.9937662,11.7735065 15.9968831,13.1948052 C15.5667532,12.7428571 15.1335065,12.294026 14.7033766,11.8420779 C14.6784416,11.8077922 14.6316883,11.7797403 14.6379221,11.7298701 C14.6379221,10.7948052 14.6379221,9.86285714 14.6379221,8.92779221 Z M8.72831169,10.3771429 C9.92519481,10.3771429 11.1251948,10.3771429 12.3220779,10.3802597 C13.547013,11.6581818 14.7781818,12.9361039 16,14.2202597 C17.2249351,12.9392208 18.452987,11.6612987 19.6779221,10.3802597 C20.8748052,10.374026 22.0716883,10.3771429 23.2716883,10.3771429 C23.1625974,10.4519481 23.0846753,10.5579221 22.9911688,10.6483117 C21.4233766,12.2285714 19.8618182,13.8150649 18.294026,15.3953247 C18.0883117,15.5916883 17.9012987,15.8005195 17.7018182,16 C18.5246753,16.8509091 19.3693506,17.6831169 20.1984416,18.5277922 C21.0524675,19.3974026 21.9158442,20.2638961 22.772987,21.1303896 C22.9444156,21.2893506 23.0877922,21.4732468 23.2716883,21.6197403 C22.0748052,21.6166234 20.8779221,21.6228571 19.681039,21.6135065 C18.4561039,20.3324675 17.2280519,19.0514286 16.0031169,17.7703896 C14.7812987,19.0545455 13.5501299,20.3324675 12.3251948,21.6135065 C11.1251948,21.6228571 9.92519481,21.6197403 8.72831169,21.6197403 C8.74701299,21.6072727 8.77818182,21.5823377 8.79376623,21.5698701 C9.60415584,20.7501299 10.4176623,19.9303896 11.2311688,19.1106494 C12.2472727,18.0664935 13.2851948,17.041039 14.3044156,15.9968831 C13.4628571,15.1428571 12.6150649,14.2919481 11.7703896,13.4379221 C10.8477922,12.4966234 9.91896104,11.5646753 8.99324675,10.6296104 C8.90597403,10.5454545 8.83116883,10.4457143 8.72831169,10.3771429 Z M16.0062338,18.7927273 C16.2057143,19.0233766 16.427013,19.2290909 16.6327273,19.4535065 C16.8602597,19.7028571 17.1033766,19.9366234 17.334026,20.185974 C17.3558442,20.2046753 17.3683117,20.2327273 17.3651948,20.267013 C17.3651948,21.2020779 17.3651948,22.1371429 17.3651948,23.0722078 C16.9132468,23.0722078 16.4581818,23.0690909 16.0031169,23.0722078 C16.0093506,21.6446753 16.0062338,20.2202597 16.0062338,18.7927273 Z" id="Combined-Shape" fill="#FFFFFF" fill-rule="nonzero"></path>
        <g id="GLX-Token-(GXLT)" transform="translate(4.000000, 4.000000)"></g>
    </g>
</svg>
